X:82
T:Donny Brook
M:6/8
Q:1/8=300
K:D
%%MIDI channel 1
%%MIDI program 72
%%MIDI transpose 8
%%MIDI grace 1/8
%%MIDI ratio 3 1
(3(A/B/c/)|d2d dcd|Bdd Add|d2d dcd|Bed cBA|d2d dcd|Bdd Add|Bcd cde|fdd d2::
A|dfa afd|dfa a2A|dfa afd|gfg e2A|dfa afd|dfa a2A|gfg eag|fdd d2:|

